lib/flags/m/MDV.svg

<svg xmlns="http://www.w3.org/2000/svg" fill="none" viewBox="0 0 20 15"><mask id="MDV_svg__a" width="20" height="15" x="0" y="0" mask-type="alpha" maskUnits="userSpaceOnUse"><path fill="#fff" d="M0 0H20V15H0z"/></mask><g mask="url(#MDV_svg__a)"><path fill="#C51918" fill-rule="evenodd" d="M0 0H20V13.75C20 14.4404 19.4404 15 18.75 15H1.25C0.559644 15 0 14.4404 0 13.75V0Z" clip-rule="evenodd"/><path fill="#C51918" fill-rule="evenodd" d="M0 0H20V15H0V0Z" clip-rule="evenodd"/><path fill="#579D20" fill-rule="evenodd" d="M3 3H17V12H3V3Z" clip-rule="evenodd"/><path stroke="#B6EB9A" stroke-opacity=".238" stroke-width="1.25" d="M3.625 3.625H16.375V11.375H3.625V3.625Z"/><mask id="MDV_svg__b" width="14" height="9" x="3" y="3" mask-type="alpha" maskUnits="userSpaceOnUse"><path fill="#fff" fill-rule="evenodd" d="M3 3H17V12H3V3Z" clip-rule="evenodd"/><path stroke="#fff" stroke-width="1.25" d="M3.625 3.625H16.375V11.375H3.625V3.625Z"/></mask><g mask="url(#MDV_svg__b)"><path fill="#F9FAFA" fill-rule="evenodd" d="M10.0206 7.78901C10.01 9.70506 11.5184 10.7266 11.5184 10.7266C9.7972 10.9287 8.65204 9.36839 8.65204 7.80768C8.65204 6.24697 10.213 4.95776 11.5184 4.37561C11.5184 4.37561 10.0312 5.87295 10.0206 7.78901Z" clip-rule="evenodd"/></g></g></svg>

<svg xmlns="http://www.w3.org/2000/svg" fill="none" viewBox="0 0 20 15"><mask id="MDV_svg__a" width="20" height="15" x="0" y="0" maskUnits="userSpaceOnUse"><path fill="#fff" d="M0 0h20v15H0z"/></mask><g mask="url(#MDV_svg__a)"><path fill="#C51918" fill-rule="evenodd" d="M0 0h20v13.75c0 .69-.56 1.25-1.25 1.25H1.25C.56 15 0 14.44 0 13.75V0z" clip-rule="evenodd"/><path fill="#C51918" fill-rule="evenodd" d="M0 0h20v15H0V0z" clip-rule="evenodd"/><path fill="#579D20" fill-rule="evenodd" d="M3 3h14v9H3V3z" clip-rule="evenodd"/><path stroke="#B6EB9A" stroke-opacity=".238" stroke-width="1.25" d="M3.625 3.625h12.75v7.75H3.625v-7.75z"/><mask id="MDV_svg__b" width="14" height="9" x="3" y="3" maskUnits="userSpaceOnUse"><path fill="#fff" fill-rule="evenodd" d="M3 3h14v9H3V3z" clip-rule="evenodd"/><path stroke="#fff" stroke-width="1.25" d="M3.625 3.625h12.75v7.75H3.625v-7.75z"/></mask><g mask="url(#MDV_svg__b)"><path fill="#F9FAFA" fill-rule="evenodd" d="M10.02 7.789c-.01 1.916 1.498 2.938 1.498 2.938-1.72.202-2.866-1.359-2.866-2.92 0-1.56 1.561-2.85 2.866-3.431 0 0-1.487 1.497-1.497 3.413z" clip-rule="evenodd"/></g></g></svg>
